X: 5044
T: Brian O'Lynn
R: jig
M: 6/8
K: Adorian
B|:cAd cAG|~E3 GAB|cBd cAG|EAA A2B|
cAd cAG|~E3 GAB|cde g/f/ed|1 cAG A2B:|2 cAG A2f||
|:~g3 ged|cAB c2d|ef/g/a age|edc def|
~g3 ged|cAB cde|g/f/ed cAG|1 EAA A2f:|2 EAA A2B||

